X:1
T:Violin Sonata No. 1 in G minor
T:Violin Sonata No. 1 in G minor
T: BWV 1001 - Adágio 
T:J. S. BACH- pg 1 
C:J. S. BACH
L:1/8
M:4/4
K:F
V:1 treble nm="Piano" snm="Pno."
V:1
!f! (v[G,DBg]8 | g)(uf_e)d cB AB/G/ | (v[A,G]4 (^F4) | u^F)(ED)E FG A/B/c/B/ | %4
 (vu[Dc]4 c)(ud/c/ Bc) | Tc3 B/c/ d2 A2 | v[G,DBg]4 z!mf! (uG A/B/)c/d/ | _e4 vu[GB]4 | %8
 (B2 A2) (_e2 d2) | vd4 [Ddb]4 | (vd2 (d)u_e dc Bc/A/) |!p! (vB^F)GD _Ed/c/ B/c/{/c}c/B/4c/4 | %12
!f! (Tu[Ddg]4 ^f4) | va4 [Dc]4 | v[G,DB]2 (ud2 ^f2 a2) | vg4 [G,FB]4 | v[^CEA]2 (uba/g/ Tf3 e) | %17
 f4 [DA]4 | (v[GBf]2 d2)"^meio arco" u_e4 |!p! (vb2 g2) ([Bg]2 [G_e]2) | (v_e2 ^c2) ua4 | %21
!p! vF3 (ua gfed) | (vE2 d2) g2"^Arco Todo" ue2 | (vd2 ^c2) (A2"^A" g2) | %24
"^Arco Todo" vD2 (ug2 f2 ge) | f4 [CA]4 |"^Arco Todo" (v[B,A]2"^P......\n\n\n\n\n" D2) uG2 vf2 | %27
 (ue4 e/f/g/a/ b/e/f/g/) | (v[A,Gd]4 ^c4) | (uGFGE F2) vd2 | (u[A,Ed]>^c) =Bc de fg/e/ | %31
 Tv^c6 ud2 |!f! (v[Dd]8 | d)(udcB A/B/A/)B/ TB3/2A/4B/4 |"^meio arco" v[A,^Fc]2 (u_ed) (v_e4 | %35
 _e)(u_ed)c B2 cA | v[G,DAg]2 B2 uB2!p!"^Talão..." uGvB/ud/ | (vgf)_ed cB A/G/^F/G/ | %38
 (u[DG]4 ^F4) | v[G,=F=B]3 (uG/_A/) GF _EF/D/ | (v[C=B]2 d2) (ud2 c2) | (v_e2 d2) (ud2 _e2) | %42
!f!{d} v[_A,Fd]3 (u_B cd _ef/g/) | (v_a2 B2) D2!p! u_a2 | v_E2 (u_a2 g4) | v_d4 (u_EG)B_d | %46
 v_A,2 uc2 [Fc_a]2 ugf | (v[B,F_e]4 T=d3)"^B" _e |] %48

